/* XPM */
static char *monitor_3[] = {
  /* width height num_colors chars_per_pixel */
  "64 52 13 1",
  /* colors */
  "+ c #1e1e12",
  "F c #3a3c28",
  "f c #4e5038",
  "B c #28281a",
  "b c #383828",
  "0 c #0a0c06",
  "1 c #3a3e20",
  "2 c #6a7040",
  "3 c #a0a860",
  "4 c #d4d890",
  "5 c #eeeea8",
  "S c #c8c060",
  "G c #1a2010",
  /* pixels */
  "++++++++++++++++++++++++++++++++++++++++++++++++++++++++++++++++",
  "++++++++++++++++++++++++++++++++++++++++++++++++++++++++++++++++",
  "++++++++++++++++++++++++++++++++++++++++++++++++++++++++++++++++",
  "+++++fFFffFFffFFffFFffFFffFFffFFffFFffFFffFFffFFffFFffFFffF+++++",
  "+++++fFFffFFffFFffFFffFFffFFffFFffFFffFFffFFffFFffFFffFFffF+++++",
  "+++FffFFfGGGGGGGGGGGGGGGGGGGGGGGGGGGGGGGGGGGGGGGGGGGGGGFffFFf+++",
  "+++FFFFFF5115215213211230241231252052143242302402312221FFFFFF+++",
  "+++FFFFFFGGGGGGGGGGGGGGGGGGGGGGGGGGGGGGGGGGGGGGGGGGGGGGFFFFFF+++",
  "+++ffffff3042253302312330431522523123123305315311231231ffffff+++",
  "+++ffffffGGGGGGGGGGGGGGGGGGGGGGGGGGGGGGGGGGGGGGGGGGGGGGffffff+++",
  "+++FFFFFF2132513313324220334233043253252342340431533023FFFFFF+++",
  "+++FFFFFFGGGGGGGGGGGGGGGGGGGGGGGGGGGGGGGGGGGGGGGGGGGGGGFFFFFF+++",
  "+++ffffff1424022215214230252132123513424320234233043252ffffff+++",
  "+++ffffffGGGGGGGGGGGGGGGGGGGGGGGGGGGGGGGGGGGGGGGGGGGGGGffffff+++",
  "+++FFFFFF5224243243302220431125113203251332132523324324FFFFFF+++",
  "+++FFFFFFGGGGGGGGGGGGGGGGGGGGGGGGGGGGGGGGGGGGGGGGGGGGGGFFFFFF+++",
  "+++ffffff1252132513424320224053112411420135132202342432ffffff+++",
  "+++ffffffGGGGGGGGGGGGGGGGGGGGGGGGGGGGGGGGGGGGGGGGGGGGGGffffff+++",
  "+++FFFFFF2331424122203250332023304311232142413421335233FFFFFF+++",
  "+++FFFFFFGGGGGGGGGGGGGGGGGGGGGGGGGGGGGGGGGGGGGGGGGGGGGGFFFFFF+++",
  "+++ffffff3320234042202220333112252341533125211352132423ffffff+++",
  "+++ffffffGGGGGGGGGGGGGGGGGGGGGGGGGGGGGGGGGGGGGGGGGGGGGGffffff+++",
  "+++FFFFFF5211242133423321222113521334243212222335013242FFFFFF+++",
  "+++FFFFFFGGGGGGGGGGGGGGGGGGGGGGGGGGGGGGGGGGGGGGGGGGGGGGFFFFFF+++",
  "+++ffffff2202331125203232433125242222023324231042411324ffffff+++",
  "+++ffffffGGGGGGGGGGGGGGGGGGGGGGGGGGGGGGGGGGGGGGGGGGGGGGffffff+++",
  "+++FFFFFF2403325233112521133252220424213230533114241132FFFFFF+++",
  "+++FFFFFFGGGGGGGGGGGGGGGGGGGGGGGGGGGGGGGGGGGGGGGGGGGGGGFFFFFF+++",
  "+++ffffff2124240332524331242513331253301325232311524113ffffff+++",
  "+++ffffffGGGGGGGGGGGGGGGGGGGGGGGGGGGGGGGGGGGGGGGGGGGGGGffffff+++",
  "+++FFFFFF5032311424113331423202332523311232424331142314FFFFFF+++",
  "+++FFFFFFGGGGGGGGGGGGGGGGGGGGGGGGGGGGGGGGGGGGGGGGGGGGGGFFFFFF+++",
  "+++ffffff1143325232112325243311435242231122252423114252ffffff+++",
  "+++ffffffGGGGGGGGGGGGGGGGGGGGGGGGGGGGGGGGGGGGGGGGGGGGGGffffff+++",
  "+++FFFFFF2433111332024340132414252414334042520242311425FFFFFF+++",
  "+++FFFFFFGGGGGGGGGGGGGGGGGGGGGGGGGGGGGGGGGGGGGGGGGGGGGGFFFFFF+++",
  "+++ffffff1334242524143331122252423201322114252024332133ffffff+++",
  "+++FffFFffFFffFFffFFffFFffFFffFFffFFffFFffFFffFFffFFffFFffFFf+++",
  "+++FffFFffFFffFFffFFffFFffFFffFFffFFffFFffFFffFFffFFffFFffFFf+++",
  "+++++fFFffFFffFFffFFffFFffFFffFFffFFffFFffFFffFFffFFffFFffF+++++",
  "+++++fFFffFFffFFffFFffFFffFFffFFffFFffFFffFFffFFffFFffFFffF+++++",
  "++++++++++++++++++++++++++++BbBbBbBbB+++++++++++++++++++++++++++",
  "++++++++++++++++++++++++++++BbBbBbBbB+++++++++++++++++++++++++++",
  "++++++++++++++++++++++++++++BbBbBbBbB+++++++++++++++++++++++++++",
  "+++++++++++++++++++++BbbBbbBbbBbbBbbBbbBbbBb++++++++++++++++++++",
  "+++++++++++++++++++++BbbBbbBbbBbbBbbBbbBbbBb++++++++++++++++++++",
  "+++++++++++++++++++++BbbBbbBbbBbbBbbBbbBbbBb++++++++++++++++++++",
  "+++++++++++++++++++++BbbBbbBbbBbbBbbBbbBbbBb++++++++++++++++++++",
  "+++++++++++++++++++++BbbBbbBbbBbbBbbBbbBbbBb++++++++++++++++++++",
  "++++++++++++++++++++++++++++++++++++++++++++++++++++++++++++++++",
  "++++++++++++++++++++++++++++++++++++++++++++++++++++++++++++++++",
  "++++++++++++++++++++++++++++++++++++++++++++++++++++++++++++++++"
};
