/* XPM */
static char *monitor_1[] = {
  /* width height num_colors chars_per_pixel */
  "64 52 13 1",
  /* colors */
  "+ c #1e1e12",
  "F c #3a3c28",
  "f c #4e5038",
  "B c #28281a",
  "b c #383828",
  "0 c #0a0c06",
  "1 c #3a3e20",
  "2 c #6a7040",
  "3 c #a0a860",
  "4 c #d4d890",
  "5 c #eeeea8",
  "S c #c8c060",
  "G c #1a2010",
  /* pixels */
  "++++++++++++++++++++++++++++++++++++++++++++++++++++++++++++++++",
  "++++++++++++++++++++++++++++++++++++++++++++++++++++++++++++++++",
  "++++++++++++++++++++++++++++++++++++++++++++++++++++++++++++++++",
  "+++++fFFffFFffFFffFFffFFffFFffFFffFFffFFffFFffFFffFFffFFffF+++++",
  "+++++fFFffFFffFFffFFffFFffFFffFFffFFffFFffFFffFFffFFffFFffF+++++",
  "+++FffFFfGGGGGGGGGGGGGGGGGGGGGGGGGGGGGGGGGGGGGGGGGGGGGGFffFFf+++",
  "+++FFFFFF2521322420321123124125115215213214231241251222FFFFFF+++",
  "+++FFFFFFGGGGGGGGGGGGGGGGGGGGGGGGGGGGGGGGGGGGGGGGGGGGGGFFFFFF+++",
  "+++ffffff5305215231231232153152212302312520531434024122ffffff+++",
  "+++ffffffGGGGGGGGGGGGGGGGGGGGGGGGGGGGGGGGGGGGGGGGGGGGGGffffff+++",
  "+++FFFFFF2213352330332432523423304325320231233153143402FFFFFF+++",
  "+++FFFFFFGGGGGGGGGGGGGGGGGGGGGGGGGGGGGGGGGGGGGGGGGGGGGGFFFFFF+++",
  "+++ffffff3112412221421235033213252242332532023424305221ffffff+++",
  "+++ffffffGGGGGGGGGGGGGGGGGGGGGGGGGGGGGGGGGGGGGGGGGGGGGGffffff+++",
  "+++FFFFFF2023404314231252042422521321223033253352230331FFFFFF+++",
  "+++FFFFFFGGGGGGGGGGGGGGGGGGGGGGGGGGGGGGGGGGGGGGGGGGGGGGFFFFFF+++",
  "+++ffffff4033213342332533122204341252232413424320224043ffffff+++",
  "+++ffffffGGGGGGGGGGGGGGGGGGGGGGGGGGGGGGGGGGGGGGGGGGGGGGffffff+++",
  "+++FFFFFF1242242501321234243202230323025204251332523425FFFFFF+++",
  "+++FFFFFFGGGGGGGGGGGGGGGGGGGGGGGGGGGGGGGGGGGGGGGGGGGGGGFFFFFF+++",
  "+++ffffff0322022314242232013424335233142411424133243342ffffff+++",
  "+++ffffffGGGGGGGGGGGGGGGGGGGGGGGGGGGGGGGGGGGGGGGGGGGGGGffffff+++",
  "+++FFFFFF1424133202240534124211332523403230252023524334FFFFFF+++",
  "+++FFFFFFGGGGGGGGGGGGGGGGGGGGGGGGGGGGGGGGGGGGGGGGGGGGGGFFFFFF+++",
  "+++ffffff4331242412320233142311423143242431022201352433ffffff+++",
  "+++ffffffGGGGGGGGGGGGGGGGGGGGGGGGGGGGGGGGGGGGGGGGGGGGGGffffff+++",
  "+++FFFFFF3350433125340232523321252113320223142520335243FFFFFF+++",
  "+++FFFFFFGGGGGGGGGGGGGGGGGGGGGGGGGGGGGGGGGGGGGGGGGGGGGGFFFFFF+++",
  "+++ffffff3411423243311425113232523103352133315242133425ffffff+++",
  "+++ffffffGGGGGGGGGGGGGGGGGGGGGGGGGGGGGGGGGGGGGGGGGGGGGGffffff+++",
  "+++FFFFFF3405232043425233112324143202423113340524113342FFFFFF+++",
  "+++FFFFFFGGGGGGGGGGGGGGGGGGGGGGGGGGGGGGGGGGGGGGGGGGGGGGFFFFFF+++",
  "+++ffffff5202332025240333403242023320252402334052420233ffffff+++",
  "+++ffffffGGGGGGGGGGGGGGGGGGGGGGGGGGGGGGGGGGGGGGGGGGGGGGffffff+++",
  "+++FFFFFF4142521142311434202331013332423211222425242013FFFFFF+++",
  "+++FFFFFFGGGGGGGGGGGGGGGGGGGGGGGGGGGGGGGGGGGGGGGGGGGGGGFFFFFF+++",
  "+++ffffff2023320143425232401334112225043321132240524211ffffff+++",
  "+++FffFFffFFffFFffFFffFFffFFffFFffFFffFFffFFffFFffFFffFFffFFf+++",
  "+++FffFFffFFffFFffFFffFFffFFffFFffFFffFFffFFffFFffFFffFFffFFf+++",
  "+++++fFFffFFffFFffFFffFFffFFffFFffFFffFFffFFffFFffFFffFFffF+++++",
  "+++++fFFffFFffFFffFFffFFffFFffFFffFFffFFffFFffFFffFFffFFffF+++++",
  "++++++++++++++++++++++++++++BbBbBbBbB+++++++++++++++++++++++++++",
  "++++++++++++++++++++++++++++BbBbBbBbB+++++++++++++++++++++++++++",
  "++++++++++++++++++++++++++++BbBbBbBbB+++++++++++++++++++++++++++",
  "+++++++++++++++++++++BbbBbbBbbBbbBbbBbbBbbBb++++++++++++++++++++",
  "+++++++++++++++++++++BbbBbbBbbBbbBbbBbbBbbBb++++++++++++++++++++",
  "+++++++++++++++++++++BbbBbbBbbBbbBbbBbbBbbBb++++++++++++++++++++",
  "+++++++++++++++++++++BbbBbbBbbBbbBbbBbbBbbBb++++++++++++++++++++",
  "+++++++++++++++++++++BbbBbbBbbBbbBbbBbbBbbBb++++++++++++++++++++",
  "++++++++++++++++++++++++++++++++++++++++++++++++++++++++++++++++",
  "++++++++++++++++++++++++++++++++++++++++++++++++++++++++++++++++",
  "++++++++++++++++++++++++++++++++++++++++++++++++++++++++++++++++"
};
