/* XPM */
static char *wall_south[] = {
/* width height num_colors chars_per_pixel */
"64 64 7 1",
/* colors */
"  c #BEB58A",
". c #A89F74",
"X c #8E8560",
"o c #6B6549",
"O c #4F4B37",
"+ c #D4CCA1",
"@ c #5E7058",
/* pixels */
"++++++++++++++++++++++++++++++++++++++++++++++++++++++++++++++++",
"+..............................................................+",
"+.XXXXXXXXXXXXXXXXXXXXXXXXXXXXXXXXXXXXXXXXXXXXXXXXXXXXXXXXXXXX.+",
"+.XooooooooooooooooooooooooooooooooooooooooooooooooooooooooooX.+",
"+.Xo@@@@@@@@@@@@@@@@@@@@@@@@@@@@@@@@@@@@@@@@@@@@@@@@@@@@@@@@oX.+",
"+.Xo@....@....@....@....@....@....@....@....@....@....@...@oX.+",
"+.Xo@.XX.@.XX.@.XX.@.XX.@.XX.@.XX.@.XX.@.XX.@.XX.@.XX.@...@oX.+",
"+.Xo@....@....@....@....@....@....@....@....@....@....@...@oX.+",
"+.Xo@@@@@@@@@@@@@@@@@@@@@@@@@@@@@@@@@@@@@@@@@@@@@@@@@@@@@@@@oX.+",
"+.XooooooooooooooooooooooooooooooooooooooooooooooooooooooooooX.+",
"+.XXXXXXXXXXXXXXXXXXXXXXXXXXXXXXXXXXXXXXXXXXXXXXXXXXXXXXXXXXXX.+",
"+..............................................................+",
"+                                                              +",
"+   @@@        @@@@            @@           @@@@             +",
"+  @...@      @....@         @@..@@       @@....@@           +",
"+  @.X.@      @.XX.@         @.XX.@       @.XX..@            +",
"+  @...@      @....@         @@..@@       @@....@@           +",
"+   @@@        @@@@            @@           @@@@             +",
"+OOOOOOOOOOOOOOOOOOOOOOOOOOOOOOOOOOOOOOOOOOOOOOOOOOOOOOOOOOOOOO+",
"+                                                              +",
"+ .... .... .... .... .... .... .... .... .... .... .... .... +",
"+ .XX. .XX. .XX. .XX. .XX. .XX. .XX. .XX. .XX. .XX. .XX. .XX.+",
"+ .... .... .... .... .... .... .... .... .... .... .... .... +",
"+                                                              +",
"+@@@@@@@@@@@@@@@@@@@@@@@@@@@@@@@@@@@@@@@@@@@@@@@@@@@@@@@@@@@@@@+",
"+@............................................................@+",
"+@.XXXXXXXXXXXXXXXXXXXXXXXXXXXXXXXXXXXXXXXXXXXXXXXXXXXXXXXXXX.@+",
"+@.XooooooooooooooooooooooooooooooooooooooooooooooooooooooooX.@+",
"+@.Xo                                                    oX.@+",
"+@.Xo .... .... .... .... .... .... .... .... .... ....  oX.@+",
"+@.Xo .XX. .XX. .XX. .XX. .XX. .XX. .XX. .XX. .XX. .XX.  oX.@+",
"+@.Xo .... .... .... .... .... .... .... .... .... ....  oX.@+",
"+@.Xo                                                    oX.@+",
"+@.XooooooooooooooooooooooooooooooooooooooooooooooooooooooooX.@+",
"+@.XXXXXXXXXXXXXXXXXXXXXXXXXXXXXXXXXXXXXXXXXXXXXXXXXXXXXXXXXX.@+",
"+@............................................................@+",
"+@@@@@@@@@@@@@@@@@@@@@@@@@@@@@@@@@@@@@@@@@@@@@@@@@@@@@@@@@@@@@@+",
"+                                                              +",
"+OOOOOOOOOOOOOOOOOOOOOOOOOOOOOOOOOOOOOOOOOOOOOOOOOOOOOOOOOOOOOO+",
"+                                                              +",
"+@@@@@@@@@@@@@@@      @@@@@@@@@@@@@      @@@@@@@@@@@@@@@@@@@@@@+",
"+@@@@@@@@@@@@@@        @@@@@@@@@@@        @@@@@@@@@@@@@@@@@@@@@+",
"+@@@@@@@@@@@@            @@@@@@@            @@@@@@@@@@@@@@@@@@@+",
"+@@@@@@@@@@@              @@@@@              @@@@@@@@@@@@@@@@@@+",
"+@@@@@@@@@@@@            @@@@@@@            @@@@@@@@@@@@@@@@@@@+",
"+@@@@@@@@@@@@@@        @@@@@@@@@@@        @@@@@@@@@@@@@@@@@@@@@+",
"+@@@@@@@@@@@@@@@      @@@@@@@@@@@@@      @@@@@@@@@@@@@@@@@@@@@@+",
"+                                                              +",
"+..............................................................+",
"+.XXXXXXXXXXXXXXXXXXXXXXXXXXXXXXXXXXXXXXXXXXXXXXXXXXXXXXXXXXXX.+",
"+.XooooooooooooooooooooooooooooooooooooooooooooooooooooooooooX.+",
"+.Xo@@@@@@@@@@@@@@@@@@@@@@@@@@@@@@@@@@@@@@@@@@@@@@@@@@@@@@@@oX.+",
"+.Xo@....@....@....@....@....@....@....@....@....@....@...@oX.+",
"+.Xo@.XX.@.XX.@.XX.@.XX.@.XX.@.XX.@.XX.@.XX.@.XX.@.XX.@...@oX.+",
"+.Xo@....@....@....@....@....@....@....@....@....@....@...@oX.+",
"+.Xo@@@@@@@@@@@@@@@@@@@@@@@@@@@@@@@@@@@@@@@@@@@@@@@@@@@@@@@@oX.+",
"+.XooooooooooooooooooooooooooooooooooooooooooooooooooooooooooX.+",
"+.XXXXXXXXXXXXXXXXXXXXXXXXXXXXXXXXXXXXXXXXXXXXXXXXXXXXXXXXXXXX.+",
"+..............................................................+",
"++++++++++++++++++++++++++++++++++++++++++++++++++++++++++++++++"
};
