/* XPM */
static char *wall_east[] = {
/* width height num_colors chars_per_pixel */
"64 64 6 1",
/* colors */
"  c #C8D1BE",
". c #AAB69D",
"X c #8C9A7D",
"o c #66705B",
"O c #4B5245",
"+ c #DCE5D2",
/* pixels */
"++++++++++++++++++++++++++++++++++++++++++++++++++++++++++++++++",
"+..............................................................+",
"+.XXXXXXXXXXXXXXXXXXXXXXXXXXXXXXXXXXXXXXXXXXXXXXXXXXXXXXXXXXXX.+",
"+.XooooooooooooooooooooooooooooooooooooooooooooooooooooooooooX.+",
"+.Xo                                                          oX.+",
"+.Xo  ....  ....  ....  ....  ....  ....  ....  ....  ....   oX.+",
"+.Xo  .XX.  .XX.  .XX.  .XX.  .XX.  .XX.  .XX.  .XX.  .XX.   oX.+",
"+.Xo  ....  ....  ....  ....  ....  ....  ....  ....  ....   oX.+",
"+.Xo                                                          oX.+",
"+.XooooooooooooooooooooooooooooooooooooooooooooooooooooooooooX.+",
"+.XXXXXXXXXXXXXXXXXXXXXXXXXXXXXXXXXXXXXXXXXXXXXXXXXXXXXXXXXXXX.+",
"+..............................................................+",
"+OOOOOOOOOOOOOOOOOOOOOOOOOOOOOOOOOOOOOOOOOOOOOOOOOOOOOOOOOOOOOO+",
"+                                                              +",
"+      ................................................        +",
"+      .XXXXXXXXXXXXXXXXXXXXXXXXXXXXXXXXXXXXXXXXXXXXXX.        +",
"+      .XooooooooooooooooooooooooooooooooooooooooooooX.        +",
"+      .Xo                                        ooX.        +",
"+      .Xo .... .... .... .... .... .... .... .... oX.        +",
"+      .Xo .XX. .XX. .XX. .XX. .XX. .XX. .XX. .XX. oX.        +",
"+      .Xo .... .... .... .... .... .... .... .... oX.        +",
"+      .Xo                                        ooX.        +",
"+      .XooooooooooooooooooooooooooooooooooooooooooooX.        +",
"+      .XXXXXXXXXXXXXXXXXXXXXXXXXXXXXXXXXXXXXXXXXXXXXX.        +",
"+      ................................................        +",
"+                                                              +",
"+OOOOOOOOOOOOOOOOOOOOOOOOOOOOOOOOOOOOOOOOOOOOOOOOOOOOOOOOOOOOOO+",
"+                                                              +",
"+  ....  ....  ....  ....  ....  ....  ....  ....  ....  .... +",
"+  .XX.  .XX.  .XX.  .XX.  .XX.  .XX.  .XX.  .XX.  .XX.  .XX. +",
"+  ....  ....  ....  ....  ....  ....  ....  ....  ....  .... +",
"+                                                              +",
"+..............................................................+",
"+.XXXXXXXXXXXXXXXXXXXXXXXXXXXXXXXXXXXXXXXXXXXXXXXXXXXXXXXXXXXX.+",
"+.XooooooooooooooooooooooooooooooooooooooooooooooooooooooooooX.+",
"+.Xo                                                          oX.+",
"+.Xo  ....  ....  ....  ....  ....  ....  ....  ....  ....   oX.+",
"+.Xo  .XX.  .XX.  .XX.  .XX.  .XX.  .XX.  .XX.  .XX.  .XX.   oX.+",
"+.Xo  ....  ....  ....  ....  ....  ....  ....  ....  ....   oX.+",
"+.Xo                                                          oX.+",
"+.XooooooooooooooooooooooooooooooooooooooooooooooooooooooooooX.+",
"+.XXXXXXXXXXXXXXXXXXXXXXXXXXXXXXXXXXXXXXXXXXXXXXXXXXXXXXXXXXXX.+",
"+..............................................................+",
"+OOOOOOOOOOOOOOOOOOOOOOOOOOOOOOOOOOOOOOOOOOOOOOOOOOOOOOOOOOOOOO+",
"+                                                              +",
"+      ................................................        +",
"+      .XXXXXXXXXXXXXXXXXXXXXXXXXXXXXXXXXXXXXXXXXXXXXX.        +",
"+      .XooooooooooooooooooooooooooooooooooooooooooooX.        +",
"+      .Xo                                        ooX.        +",
"+      .Xo .... .... .... .... .... .... .... .... oX.        +",
"+      .Xo .XX. .XX. .XX. .XX. .XX. .XX. .XX. .XX. oX.        +",
"+      .Xo .... .... .... .... .... .... .... .... oX.        +",
"+      .Xo                                        ooX.        +",
"+      .XooooooooooooooooooooooooooooooooooooooooooooX.        +",
"+      .XXXXXXXXXXXXXXXXXXXXXXXXXXXXXXXXXXXXXXXXXXXXXX.        +",
"+      ................................................        +",
"+                                                              +",
"++++++++++++++++++++++++++++++++++++++++++++++++++++++++++++++++"
};
