/* XPM */
static char *wall_east[] = {
/* width height num_colors chars_per_pixel */
"64 52 4 1",
/* colors */
"  c #E6DFB8",
". c #C9C18F",
"X c #AFA676",
"o c #6F6A4E",
/* pixels */
"                                                                ",
"                                                                ",
"  .  .  .  .  .  .  .  .  .  .  .  .  .  .  .  .  .  .  .  . ",
" X.X.X.X.X.X.X.X.X.X.X.X.X.X.X.X.X.X.X.X.X.X.X.X.X.X.X.X.X. ",
"  .  .  .  .  .  .  .  .  .  .  .  .  .  .  .  .  .  .  .  . ",
"X.X.X.X.X.X.X.X.X.X.X.X.X.X.X.X.X.X.X.X.X.X.X.X.X.X.X.X.X.X",
"  .  .  .  .  .  .  .  .  .  .  .  .  .  .  .  .  .  .  .  . ",
" X.X.X.X.X.X.X.X.X.X.X.X.X.X.X.X.X.X.X.X.X.X.X.X.X.X.X.X.X. ",
"  .  .  .  .  .  .  .  .  .  .  .  .  .  .  .  .  .  .  .  . ",
"X.X.X.X.X.X.X.X.X.X.X.X.X.X.X.X.X.X.X.X.X.X.X.X.X.X.X.X.X.X",
"  .  .  .  .  .  .  .  .  .  .  .  .  .  .  .  .  .  .  .  . ",
" X.X.X.X.X.X.X.X.X.X.X.X.X.X.X.X.X.X.X.X.X.X.X.X.X.X.X.X.X. ",
"  .  .  .  .  .  .  .  .  .  .  .  .  .  .  .  .  .  .  .  . ",
"X.X.X.X.X.X.X.X.X.X.X.X.X.X.X.X.X.X.X.X.X.X.X.X.X.X.X.X.X.X",
"  .  .  .  .  .  .  .  .  .  .  .  .  .  .  .  .  .  .  .  . ",
" X.X.X.X.X.X.X.X.X.X.X.X.X.X.X.X.X.X.X.X.X.X.X.X.X.X.X.X.X. ",
"  .  .  .  .  .  .  .  .  .  .  .  .  .  .  .  .  .  .  .  . ",
"X.X.X.X.X.X.X.X.X.X.X.X.X.X.X.X.X.X.X.X.X.X.X.X.X.X.X.X.X.X",
"  .  .  .  .  .  .  .  .  .  .  .  .  .  .  .  .  .  .  .  . ",
" X.X.X.X.X.X.X.X.X.X.X.X.X.X.X.X.X.X.X.X.X.X.X.X.X.X.X.X.X. ",
"  .  .  .  .  .  .  .  .  .  .  .  .  .  .  .  .  .  .  .  . ",
"X.X.X.X.X.X.X.X.X.X.X.X.X.X.X.X.X.X.X.X.X.X.X.X.X.X.X.X.X.X",
"  .  .  .  .  .  .  .  .  .  .  .  .  .  .  .  .  .  .  .  . ",
" X.X.X.X.X.X.X.X.X.X.X.X.X.X.X.X.X.X.X.X.X.X.X.X.X.X.X.X.X. ",
"  .  .  .  .  .  .  .  .  .  .  .  .  .  .  .  .  .  .  .  . ",
"X.X.X.X.X.X.X.X.X.X.X.X.X.X.X.X.X.X.X.X.X.X.X.X.X.X.X.X.X.X",
"  .  .  .  .  .  .  .  .  .  .  .  .  .  .  .  .  .  .  .  . ",
" X.X.X.X.X.X.X.X.X.X.X.X.X.X.X.X.X.X.X.X.X.X.X.X.X.X.X.X.X. ",
"  .  .  .  .  .  .  .  .  .  .  .  .  .  .  .  .  .  .  .  . ",
"X.X.X.X.X.X.X.X.X.X.X.X.X.X.X.X.X.X.X.X.X.X.X.X.X.X.X.X.X.X",
"  .  .  .  .  .  .  .  .  .  .  .  .  .  .  .  .  .  .  .  . ",
" X.X.X.X.X.X.X.X.X.X.X.X.X.X.X.X.X.X.X.X.X.X.X.X.X.X.X.X.X. ",
"  .  .  .  .  .  .  .  .  .  .  .  .  .  .  .  .  .  .  .  . ",
"X.X.X.X.X.X.X.X.X.X.X.X.X.X.X.X.X.X.X.X.X.X.X.X.X.X.X.X.X.X",
"  .  .  .  .  .  .  .  .  .  .  .  .  .  .  .  .  .  .  .  . ",
" X.X.X.X.X.X.X.X.X.X.X.X.X.X.X.X.X.X.X.X.X.X.X.X.X.X.X.X.X. ",
"  .  .  .  .  .  .  .  .  .  .  .  .  .  .  .  .  .  .  .  . ",
"X.X.X.X.X.X.X.X.X.X.X.X.X.X.X.X.X.X.X.X.X.X.X.X.X.X.X.X.X.X",
"  .  .  .  .  .  .  .  .  .  .  .  .  .  .  .  .  .  .  .  . ",
" X.X.X.X.X.X.X.X.X.X.X.X.X.X.X.X.X.X.X.X.X.X.X.X.X.X.X.X.X. ",
"  .  .  .  .  .  .  .  .  .  .  .  .  .  .  .  .  .  .  .  . ",
"X.X.X.X.X.X.X.X.X.X.X.X.X.X.X.X.X.X.X.X.X.X.X.X.X.X.X.X.X.X",
"  .  .  .  .  .  .  .  .  .  .  .  .  .  .  .  .  .  .  .  . ",
" X.X.X.X.X.X.X.X.X.X.X.X.X.X.X.X.X.X.X.X.X.X.X.X.X.X.X.X.X. ",
"  .  .  .  .  .  .  .  .  .  .  .  .  .  .  .  .  .  .  .  . ",
"X.X.X.X.X.X.X.X.X.X.X.X.X.X.X.X.X.X.X.X.X.X.X.X.X.X.X.X.X.X",
"  .  .  .  .  .  .  .  .  .  .  .  .  .  .  .  .  .  .  .  . ",
" X.X.X.X.X.X.X.X.X.X.X.X.X.X.X.X.X.X.X.X.X.X.X.X.X.X.X.X.X. ",
"  .  .  .  .  .  .  .  .  .  .  .  .  .  .  .  .  .  .  .  . ",
"X.X.X.X.X.X.X.X.X.X.X.X.X.X.X.X.X.X.X.X.X.X.X.X.X.X.X.X.X.X",
"  .  .  .  .  .  .  .  .  .  .  .  .  .  .  .  .  .  .  .  . ",
" X.X.X.X.X.X.X.X.X.X.X.X.X.X.X.X.X.X.X.X.X.X.X.X.X.X.X.X.X. ",
"  .  .  .  .  .  .  .  .  .  .  .  .  .  .  .  .  .  .  .  . ",
"X.X.X.X.X.X.X.X.X.X.X.X.X.X.X.X.X.X.X.X.X.X.X.X.X.X.X.X.X.X",
"                                                                ",
"                                                                "
};
