/* XPM */
static char *wall_west[] = {
  /* width height num_colors chars_per_pixel */
  "64 52 5 1",
  /* colors */
  "+ c #7c6c10",
  "  c #c8b858",
  ". c #b0a040",
  "X c #d4c86a",
  "o c #dcd088",
  /* pixels */
  "++++++++++++++++++++++++++++++++++++++++++++++++++++++++++++++++",
  "+oooooXXXXXX+oooooXXXXXX+oooooXXXXXX+oooooXXXXXX+oooooXXXXXX+ooo",
  "+oooooXXXXXX+oooooXXXXXX+oooooXXXXXX+oooooXXXXXX+oooooXXXXXX+ooo",
  "+oooooXXXXXX+oooooXXXXXX+oooooXXXXXX+oooooXXXXXX+oooooXXXXXX+ooo",
  "+oooooXXXXXX+oooooXXXXXX+oooooXXXXXX+oooooXXXXXX+oooooXXXXXX+ooo",
  "+oooooXXXXXX+oooooXXXXXX+oooooXXXXXX+oooooXXXXXX+oooooXXXXXX+ooo",
  "+oooooXXXXXX+oooooXXXXXX+oooooXXXXXX+oooooXXXXXX+oooooXXXXXX+ooo",
  "+oooooXXXXXX+oooooXXXXXX+oooooXXXXXX+oooooXXXXXX+oooooXXXXXX+ooo",
  "++++++++++++++++++++++++++++++++++++++++++++++++++++++++++++++++",
  "+oooooXXXXXX+           +oooooXXXXXX+           +oooooXXXXXX+   ",
  "+oooooXXXXXX+           +oooooXXXXXX+           +oooooXXXXXX+   ",
  "+oooooXXXXXX+           +oooooXXXXXX+           +oooooXXXXXX+   ",
  "+oooooXXXXXX+XXXXXXXXXXX+oooooXXXXXX+XXXXXXXXXXX+oooooXXXXXX+XXX",
  "+oooooXXXXXX+XXXXXXXXXXX+oooooXXXXXX+XXXXXXXXXXX+oooooXXXXXX+XXX",
  "+oooooXXXXXX+XXXXXXXXXXX+oooooXXXXXX+XXXXXXXXXXX+oooooXXXXXX+XXX",
  "+oooooXXXXXX+XXXXXXXXXXX+oooooXXXXXX+XXXXXXXXXXX+oooooXXXXXX+XXX",
  "++++++++++++++++++++++++++++++++++++++++++++++++++++++++++++++++",
  "+oooooXXXXXX+oooooXXXXXX+oooooXXXXXX+oooooXXXXXX+oooooXXXXXX+ooo",
  "+oooooXXXXXX+oooooXXXXXX+oooooXXXXXX+oooooXXXXXX+oooooXXXXXX+ooo",
  "+oooooXXXXXX+oooooXXXXXX+oooooXXXXXX+oooooXXXXXX+oooooXXXXXX+ooo",
  "+oooooXXXXXX+oooooXXXXXX+oooooXXXXXX+oooooXXXXXX+oooooXXXXXX+ooo",
  "+oooooXXXXXX+oooooXXXXXX+oooooXXXXXX+oooooXXXXXX+oooooXXXXXX+ooo",
  "+oooooXXXXXX+oooooXXXXXX+oooooXXXXXX+oooooXXXXXX+oooooXXXXXX+ooo",
  "+oooooXXXXXX+oooooXXXXXX+oooooXXXXXX+oooooXXXXXX+oooooXXXXXX+ooo",
  "++++++++++++++++++++++++++++++++++++++++++++++++++++++++++++++++",
  "+oooooXXXXXX+           +oooooXXXXXX+           +oooooXXXXXX+   ",
  "+oooooXXXXXX+           +oooooXXXXXX+           +oooooXXXXXX+   ",
  "+oooooXXXXXX+           +oooooXXXXXX+           +oooooXXXXXX+   ",
  "+oooooXXXXXX+XXXXXXXXXXX+oooooXXXXXX+XXXXXXXXXXX+oooooXXXXXX+XXX",
  "+oooooXXXXXX+XXXXXXXXXXX+oooooXXXXXX+XXXXXXXXXXX+oooooXXXXXX+XXX",
  "+oooooXXXXXX+XXXXXXXXXXX+oooooXXXXXX+XXXXXXXXXXX+oooooXXXXXX+XXX",
  "+oooooXXXXXX+XXXXXXXXXXX+oooooXXXXXX+XXXXXXXXXXX+oooooXXXXXX+XXX",
  "++++++++++++++++++++++++++++++++++++++++++++++++++++++++++++++++",
  "+oooooXXXXXX+oooooXXXXXX+oooooXXXXXX+oooooXXXXXX+oooooXXXXXX+ooo",
  "+oooooXXXXXX+oooooXXXXXX+oooooXXXXXX+oooooXXXXXX+oooooXXXXXX+ooo",
  "+oooooXXXXXX+oooooXXXXXX+oooooXXXXXX+oooooXXXXXX+oooooXXXXXX+ooo",
  "+oooooXXXXXX+oooooXXXXXX+oooooXXXXXX+oooooXXXXXX+oooooXXXXXX+ooo",
  "+oooooXXXXXX+oooooXXXXXX+oooooXXXXXX+oooooXXXXXX+oooooXXXXXX+ooo",
  "+oooooXXXXXX+oooooXXXXXX+oooooXXXXXX+oooooXXXXXX+oooooXXXXXX+ooo",
  "+oooooXXXXXX+oooooXXXXXX+oooooXXXXXX+oooooXXXXXX+oooooXXXXXX+ooo",
  "++++++++++++++++++++++++++++++++++++++++++++++++++++++++++++++++",
  "+oooooXXXXXX+           +oooooXXXXXX+           +oooooXXXXXX+   ",
  "+oooooXXXXXX+           +oooooXXXXXX+           +oooooXXXXXX+   ",
  "+oooooXXXXXX+           +oooooXXXXXX+           +oooooXXXXXX+   ",
  "+oooooXXXXXX+XXXXXXXXXXX+oooooXXXXXX+XXXXXXXXXXX+oooooXXXXXX+XXX",
  "+oooooXXXXXX+XXXXXXXXXXX+oooooXXXXXX+XXXXXXXXXXX+oooooXXXXXX+XXX",
  "+oooooXXXXXX+XXXXXXXXXXX+oooooXXXXXX+XXXXXXXXXXX+oooooXXXXXX+XXX",
  "+oooooXXXXXX+XXXXXXXXXXX+oooooXXXXXX+XXXXXXXXXXX+oooooXXXXXX+XXX",
  "++++++++++++++++++++++++++++++++++++++++++++++++++++++++++++++++",
  "+oooooXXXXXX+oooooXXXXXX+oooooXXXXXX+oooooXXXXXX+oooooXXXXXX+ooo",
  "+oooooXXXXXX+oooooXXXXXX+oooooXXXXXX+oooooXXXXXX+oooooXXXXXX+ooo",
  "+oooooXXXXXX+oooooXXXXXX+oooooXXXXXX+oooooXXXXXX+oooooXXXXXX+ooo"
};
