/* XPM */
static char *door[] = {
  /* width height num_colors chars_per_pixel */
  "64 52 9 1",
  /* colors */
  "+ c #2a2a1a",
  "  c #8a8060",
  ". c #706848",
  "X c #a09878",
  "o c #c8c0a0",
  "O c #c8d4b0",
  "g c #b0bc98",
  "H c #3a3820",
  "h c #5a5840",
  /* pixels */
  "++++++++++++++++++++++++++++++++++++++++++++++++++++++++++++++++",
  "++++++++++++++++++++++++++++++++++++++++++++++++++++++++++++++++",
  "++ X.  X.  X.  X.  X.  X.  X.  X.  X.  X.  X.  X.  X.  X.  X. ++",
  "++ X.  X.  X.  X.  X.  X.  X.  X.  X.  X.  X.  X.  X.  X.  X. ++",
  "++ X.  X.  X.  X.  X.  X.  X.  X.  X.  X.  X.  X.  X.  X.  X. ++",
  "++ X.  X.  X.  X.  X.  X.  X.  X.  X.  X.  X.  X.  X.  X.  X. ++",
  "++ X.  X.  X.  X.  X++++++++++++++++++++++++.  X.  X.  X.  X. ++",
  "++ X.  X.  X.  X.  X+OOOOOOOOOOOOOOOOOOOOOO+.  X.  X.  X.  X. ++",
  "++ X.  X.  X.  X.  X+OOOOOOOOOOOOOOOOOOOOOO+.  X.  X.  X.  X. ++",
  "++ X.  X.  X.  X.  X+OOOOOOOOOOOOOOOOOOOOOO+.  X.  X.  X.  X. ++",
  "++ X.  X.  X.  X.  X+OOOOOOOOOOOOOOOOOOOOOO+.  X.  X.  X.  X. ++",
  "++ X.  X.  X.  X.  X+OOOOOOOOOOOOOOOOOOOOOO+.  X.  X.  X.  X. ++",
  "++ X.  X.  X.  X.  X+OOOOOOOOOOOOOOOOOOOOOO+.  X.  X.  X.  X. ++",
  "++ X.  X.  X.  X.  X+OOOOOOOOOOOOOOOOOOOOOO+.  X.  X.  X.  X. ++",
  "++ X.  X.  X.  X.  X+OOOOOOOOOOOOOOOOOOOOOO+.  X.  X.  X.  X. ++",
  "++ X.  X.  X.  X.  X+OOOOOOOOOOOOOOOOOOOOOO+.  X.  X.  X.  X. ++",
  "++ X.  X.  X.  X.  X++++++++++++++++++++++++.  X.  X.  X.  X. ++",
  "++   X.    X.    X.    X.    X.    X.    X.    X.    X.    X. ++",
  "++   X.    X.    X.    X.    X.    X.    X.    X.    X.    X. ++",
  "++   X.    X.    X.    X.    X.    X.    X.    X.    X.    X. ++",
  "++   X.    X.    X.    X.    X.    X.    X.    X.    X.    X. ++",
  "++   X.    X.    X.    X.    X.    X.    X.    X.    X.    X. ++",
  "++   X.    X.    X.    X.    X.    X.    X.    X.    X.    X. ++",
  "++   X.    X.    X.    X.    X.    X.    X.    X.    X.    X. ++",
  "++   X.    X.    X.    X.    X.    X.    X.    X.    X.    X. ++",
  "++   X.    X.    X.    X.    X.    X.    X.    X.    X.    X. ++",
  "++.+..+..+..+..+..+..+..+..+..+..+..+..+..+..+..+..+..+..+..+.++",
  "++.+..+..+..+..+..+..+..+..+..+..+..+..+..+..+..+..+..+..+..+.++",
  "++   X.    X.    X.    X.    XHHHHHX.    X.    X.    X.    X. ++",
  "++   X.    X.    X.    X.    XHhHHHX.    X.    X.    X.    X. ++",
  "++   X.    X.    X.    X.    XHhHHHX.    X.    X.    X.    X. ++",
  "++   X.    X.    X.    X.    XHhHHHX.    X.    X.    X.    X. ++",
  "++...X.....X.....X.....X.....XHhHHHX.....X.....X.....X.....X..++",
  "++   X.    X.    X.    X.    XHhHHHX.    X.    X.    X.    X. ++",
  "++   X.    X.    X.    X.    XHhHHHX.    X.    X.    X.    X. ++",
  "++   X.    X.    X.    X.    XHhHHHX.    X.    X.    X.    X. ++",
  "++   X.    X.    X.    X.    XHHHHHX.    X.    X.    X.    X. ++",
  "++   X.    X.    X.    X.    X.    X.    X.    X.    X.    X. ++",
  "++   X.    X.    X.    X.    X.    X.    X.    X.    X.    X. ++",
  "++   X.    X.    X.    X.    X.    X.    X.    X.    X.    X. ++",
  "++...X.....X.....X.....X.....X.....X.....X.....X.....X.....X..++",
  "++   X.    X.    X.    X.    X.    X.    X.    X.    X.    X. ++",
  "++   X.    X.    X.    X.    X.    X.    X.    X.    X.    X. ++",
  "++   X.    X.    X.    X.    X.    X.    X.    X.    X.    X. ++",
  "++   X.    X.    X.    X.    X.    X.    X.    X.    X.    X. ++",
  "++   X.    X.    X.    X.    X.    X.    X.    X.    X.    X. ++",
  "++   X.    X.    X.    X.    X.    X.    X.    X.    X.    X. ++",
  "++   X.    X.    X.    X.    X.    X.    X.    X.    X.    X. ++",
  "++...X.....X.....X.....X.....X.....X.....X.....X.....X.....X..++",
  "++   X.    X.    X.    X.    X.    X.    X.    X.    X.    X. ++",
  "++++++++++++++++++++++++++++++++++++++++++++++++++++++++++++++++",
  "++++++++++++++++++++++++++++++++++++++++++++++++++++++++++++++++"
};
