/* XPM */
static char *monitor_2[] = {
  /* width height num_colors chars_per_pixel */
  "64 52 13 1",
  /* colors */
  "+ c #1e1e12",
  "F c #3a3c28",
  "f c #4e5038",
  "B c #28281a",
  "b c #383828",
  "0 c #0a0c06",
  "1 c #3a3e20",
  "2 c #6a7040",
  "3 c #a0a860",
  "4 c #d4d890",
  "5 c #eeeea8",
  "S c #c8c060",
  "G c #1a2010",
  /* pixels */
  "++++++++++++++++++++++++++++++++++++++++++++++++++++++++++++++++",
  "++++++++++++++++++++++++++++++++++++++++++++++++++++++++++++++++",
  "++++++++++++++++++++++++++++++++++++++++++++++++++++++++++++++++",
  "+++++fFFffFFffFFffFFffFFffFFffFFffFFffFFffFFffFFffFFffFFffF+++++",
  "+++++fFFffFFffFFffFFffFFffFFffFFffFFffFFffFFffFFffFFffFFffF+++++",
  "+++FffFFfGGGGGGGGGGGGGGGGGGGGGGGGGGGGGGGGGGGGGGGGGGGGGGFffFFf+++",
  "+++FFFFFF1222152042142412402512221520522431124024122125FFFFFF+++",
  "+++FFFFFFGGGGGGGGGGGGGGGGGGGGGGGGGGGGGGGGGGGGGGGGGGGGGGFFFFFF+++",
  "+++ffffff0431532023122124313314331231221143133142402312ffffff+++",
  "+++ffffffGGGGGGGGGGGGGGGGGGGGGGGGGGGGGGGGGGGGGGGGGGGGGGffffff+++",
  "+++FFFFFF1320235134032243252342332332533123424315214230FFFFFF+++",
  "+++FFFFFFGGGGGGGGGGGGGGGGGGGGGGGGGGGGGGGGGGGGGGGGGGGGGGFFFFFF+++",
  "+++ffffff4240251152032413502321334234032243352330431433ffffff+++",
  "+++ffffffGGGGGGGGGGGGGGGGGGGGGGGGGGGGGGGGGGGGGGGGGGGGGGffffff+++",
  "+++FFFFFF3342331522123214214240222132413404220234233153FFFFFF+++",
  "+++FFFFFFGGGGGGGGGGGGGGGGGGGGGGGGGGGGGGGGGGGGGGGGGGGGGGFFFFFF+++",
  "+++ffffff3511320224043252312531424222204351332433423315ffffff+++",
  "+++ffffffGGGGGGGGGGGGGGGGGGGGGGGGGGGGGGGGGGGGGGGGGGGGGGffffff+++",
  "+++FFFFFF3105311252132513324334243142412521135043252240FFFFFF+++",
  "+++FFFFFFGGGGGGGGGGGGGGGGGGGGGGGGGGGGGGGGGGGGGGGGGGGGGGFFFFFF+++",
  "+++ffffff4243342431424114241332023424321222233303220224ffffff+++",
  "+++ffffffGGGGGGGGGGGGGGGGGGGGGGGGGGGGGGGGGGGGGGGGGGGGGGffffff+++",
  "+++FFFFFF2033411325233152311424032252331423114240332022FFFFFF+++",
  "+++FFFFFFGGGGGGGGGGGGGGGGGGGGGGGGGGGGGGGGGGGGGGGGGGGGGGFFFFFF+++",
  "+++ffffff2523203241232424320232113421334033312424133202ffffff+++",
  "+++ffffffGGGGGGGGGGGGGGGGGGGGGGGGGGGGGGGGGGGGGGGGGGGGGGffffff+++",
  "+++FFFFFF0234252330424113340433115240132424310252113320FFFFFF+++",
  "+++FFFFFFGGGGGGGGGGGGGGGGGGGGGGGGGGGGGGGGGGGGGGGGGGGGGGFFFFFF+++",
  "+++ffffff4232023325233112521133202221122202331125211332ffffff+++",
  "+++ffffffGGGGGGGGGGGGGGGGGGGGGGGGGGGGGGGGGGGGGGGGGGGGGGffffff+++",
  "+++FFFFFF2332025211332525341143324332042421233112221133FFFFFF+++",
  "+++FFFFFFGGGGGGGGGGGGGGGGGGGGGGGGGGGGGGGGGGGGGGGGGGGGGGFFFFFF+++",
  "+++ffffff2225142311425212231122241433114252123311252414ffffff+++",
  "+++ffffffGGGGGGGGGGGGGGGGGGGGGGGGGGGGGGGGGGGGGGGGGGGGGGffffff+++",
  "+++FFFFFF3310242325232112324233420233202533013241125241FFFFFF+++",
  "+++FFFFFFGGGGGGGGGGGGGGGGGGGGGGGGGGGGGGGGGGGGGGGGGGGGGGFFFFFF+++",
  "+++ffffff2252433201332124252023331143425242411323102525ffffff+++",
  "+++FffFFffFFffFFffFFffFFffFFffFFffFFffFFffFFffFFffFFffFFffFFf+++",
  "+++FffFFffFFffFFffFFffFFffFFffFFffFFffFFffFFffFFffFFffFFffFFf+++",
  "+++++fFFffFFffFFffFFffFFffFFffFFffFFffFFffFFffFFffFFffFFffF+++++",
  "+++++fFFffFFffFFffFFffFFffFFffFFffFFffFFffFFffFFffFFffFFffF+++++",
  "++++++++++++++++++++++++++++BbBbBbBbB+++++++++++++++++++++++++++",
  "++++++++++++++++++++++++++++BbBbBbBbB+++++++++++++++++++++++++++",
  "++++++++++++++++++++++++++++BbBbBbBbB+++++++++++++++++++++++++++",
  "+++++++++++++++++++++BbbBbbBbbBbbBbbBbbBbbBb++++++++++++++++++++",
  "+++++++++++++++++++++BbbBbbBbbBbbBbbBbbBbbBb++++++++++++++++++++",
  "+++++++++++++++++++++BbbBbbBbbBbbBbbBbbBbbBb++++++++++++++++++++",
  "+++++++++++++++++++++BbbBbbBbbBbbBbbBbbBbbBb++++++++++++++++++++",
  "+++++++++++++++++++++BbbBbbBbbBbbBbbBbbBbbBb++++++++++++++++++++",
  "++++++++++++++++++++++++++++++++++++++++++++++++++++++++++++++++",
  "++++++++++++++++++++++++++++++++++++++++++++++++++++++++++++++++",
  "++++++++++++++++++++++++++++++++++++++++++++++++++++++++++++++++"
};
