/* XPM */
static char *monitor_4[] = {
  /* width height num_colors chars_per_pixel */
  "64 52 13 1",
  /* colors */
  "+ c #1e1e12",
  "F c #3a3c28",
  "f c #4e5038",
  "B c #28281a",
  "b c #383828",
  "0 c #0a0c06",
  "1 c #3a3e20",
  "2 c #6a7040",
  "3 c #a0a860",
  "4 c #d4d890",
  "5 c #eeeea8",
  "S c #c8c060",
  "G c #1a2010",
  /* pixels */
  "++++++++++++++++++++++++++++++++++++++++++++++++++++++++++++++++",
  "++++++++++++++++++++++++++++++++++++++++++++++++++++++++++++++++",
  "++++++++++++++++++++++++++++++++++++++++++++++++++++++++++++++++",
  "+++++fFFffFFffFFffFFffFFffFFffFFffFFffFFffFFffFFffFFffFFffF+++++",
  "+++++fFFffFFffFFffFFffFFffFFffFFffFFffFFffFFffFFffFFffFFffF+++++",
  "+++FffFFfGGGGGGGGGGGGGGGGGGGGGGGGGGGGGGGGGGGGGGGGGGGGGGFffFFf+++",
  "+++FFFFFF2221420432424124023122114205314224240231231243FFFFFF+++",
  "+++FFFFFFGGGGGGGGGGGGGGGGGGGGGGGGGGGGGGGGGGGGGGGGGGGGGGFFFFFF+++",
  "+++ffffff4325225230224233043253202312242431331433023123ffffff+++",
  "+++ffffffGGGGGGGGGGGGGGGGGGGGGGGGGGGGGGGGGGGGGGGGGGGGGGffffff+++",
  "+++FFFFFF3213251351332132022513423225325234233042252302FFFFFF+++",
  "+++FFFFFFGGGGGGGGGGGGGGGGGGGGGGGGGGGGGGGGGGGGGGGGGGGGGGFFFFFF+++",
  "+++ffffff3202312520421125022213241350332132522424324320ffffff+++",
  "+++ffffffGGGGGGGGGGGGGGGGGGGGGGGGGGGGGGGGGGGGGGGGGGGGGGffffff+++",
  "+++FFFFFF3523423225231253142302521421135123203342342422FFFFFF+++",
  "+++FFFFFFGGGGGGGGGGGGGGGGGGGGGGGGGGGGGGGGGGGGGGGGGGGGGGFFFFFF+++",
  "+++ffffff4022204351332433523315330222142423421325234232ffffff+++",
  "+++ffffffGGGGGGGGGGGGGGGGGGGGGGGGGGGGGGGGGGGGGGGGGGGGGGffffff+++",
  "+++FFFFFF4243142411421235213252331533025224240232022304FFFFFF+++",
  "+++FFFFFFGGGGGGGGGGGGGGGGGGGGGGGGGGGGGGGGGGGGGGGGGGGGGGFFFFFF+++",
  "+++ffffff1132523315331252112421334233252321524123213242ffffff+++",
  "+++ffffffGGGGGGGGGGGGGGGGGGGGGGGGGGGGGGGGGGGGGGGGGGGGGGffffff+++",
  "+++FFFFFF1524022212342433125241232122424331252112520324FFFFFF+++",
  "+++FFFFFFGGGGGGGGGGGGGGGGGGGGGGGGGGGGGGGGGGGGGGGGGGGGGGFFFFFF+++",
  "+++ffffff4334253402220133252310424013251432022221242133ffffff+++",
  "+++ffffffGGGGGGGGGGGGGGGGGGGGGGGGGGGGGGGGGGGGGGGGGGGGGGffffff+++",
  "+++FFFFFF4251133424241242504220253112221233252321424203FFFFFF+++",
  "+++FFFFFFGGGGGGGGGGGGGGGGGGGGGGGGGGGGGGGGGGGGGGGGGGGGGGFFFFFF+++",
  "+++ffffff3310325213230523123352423314242033424232042420ffffff+++",
  "+++ffffffGGGGGGGGGGGGGGGGGGGGGGGGGGGGGGGGGGGGGGGGGGGGGGffffff+++",
  "+++FFFFFF3424222112520233212524133242524123332423204342FFFFFF+++",
  "+++FFFFFFGGGGGGGGGGGGGGGGGGGGGGGGGGGGGGGGGGGGGGGGGGGGGGFFFFFF+++",
  "+++ffffff3201332025340133405232213325243421334252321133ffffff+++",
  "+++ffffffGGGGGGGGGGGGGGGGGGGGGGGGGGGGGGGGGGGGGGGGGGGGGGffffff+++",
  "+++FFFFFF4242224033340425212332114252023320232525232113FFFFFF+++",
  "+++FFFFFFGGGGGGGGGGGGGGGGGGGGGGGGGGGGGGGGGGGGGGGGGGGGGGFFFFFF+++",
  "+++ffffff2013321143520233411324202524143231023252523211ffffff+++",
  "+++FffFFffFFffFFffFFffFFffFFffFFffFFffFFffFFffFFffFFffFFffFFf+++",
  "+++FffFFffFFffFFffFFffFFffFFffFFffFFffFFffFFffFFffFFffFFffFFf+++",
  "+++++fFFffFFffFFffFFffFFffFFffFFffFFffFFffFFffFFffFFffFFffF+++++",
  "+++++fFFffFFffFFffFFffFFffFFffFFffFFffFFffFFffFFffFFffFFffF+++++",
  "++++++++++++++++++++++++++++BbBbBbBbB+++++++++++++++++++++++++++",
  "++++++++++++++++++++++++++++BbBbBbBbB+++++++++++++++++++++++++++",
  "++++++++++++++++++++++++++++BbBbBbBbB+++++++++++++++++++++++++++",
  "+++++++++++++++++++++BbbBbbBbbBbbBbbBbbBbbBb++++++++++++++++++++",
  "+++++++++++++++++++++BbbBbbBbbBbbBbbBbbBbbBb++++++++++++++++++++",
  "+++++++++++++++++++++BbbBbbBbbBbbBbbBbbBbbBb++++++++++++++++++++",
  "+++++++++++++++++++++BbbBbbBbbBbbBbbBbbBbbBb++++++++++++++++++++",
  "+++++++++++++++++++++BbbBbbBbbBbbBbbBbbBbbBb++++++++++++++++++++",
  "++++++++++++++++++++++++++++++++++++++++++++++++++++++++++++++++",
  "++++++++++++++++++++++++++++++++++++++++++++++++++++++++++++++++",
  "++++++++++++++++++++++++++++++++++++++++++++++++++++++++++++++++"
};
