/* XPM */
static char *wall_north[] = {
  /* width height num_colors chars_per_pixel */
  "64 52 5 1",
  /* colors */
  "+ c #8a7820",
  "  c #b8a645",
  ". c #c8b650",
  "X c #d8c660",
  "o c #e8d878",
  /* pixels */
  "++++++++++++++++++++++++++++++++++++++++++++++++++++++++++++++++",
  "+oooX   +XXX....+oooX   +XXX....+oooX   +XXX....+oooX   +XXX....",
  "+oooX   +XXX....+oooX   +XXX....+oooX   +XXX....+oooX   +XXX....",
  "+oooX   +XXX....+oooX   +XXX....+oooX   +XXX....+oooX   +XXX....",
  "+XXXX   +.......+XXXX   +.......+XXXX   +.......+XXXX   +.......",
  "+       +.......+       +.......+       +.......+       +.......",
  "+       +.......+       +.......+       +.......+       +.......",
  "+       +.......+       +.......+       +.......+       +.......",
  "++++++++++++++++++++++++++++++++++++++++++++++++++++++++++++++++",
  "+XXX....+oooX   +XXX....+oooX   +XXX....+oooX   +XXX....+oooX   ",
  "+XXX....+oooX   +XXX....+oooX   +XXX....+oooX   +XXX....+oooX   ",
  "+XXX....+oooX   +XXX....+oooX   +XXX....+oooX   +XXX....+oooX   ",
  "+.......+XXXX   +.......+XXXX   +.......+XXXX   +.......+XXXX   ",
  "+.......+       +.......+       +.......+       +.......+       ",
  "+.......+       +.......+       +.......+       +.......+       ",
  "+.......+       +.......+       +.......+       +.......+       ",
  "++++++++++++++++++++++++++++++++++++++++++++++++++++++++++++++++",
  "+oooX   +XXX....+oooX   +XXX....+oooX   +XXX....+oooX   +XXX....",
  "+oooX   +XXX....+oooX   +XXX....+oooX   +XXX....+oooX   +XXX....",
  "+oooX   +XXX....+oooX   +XXX....+oooX   +XXX....+oooX   +XXX....",
  "+XXXX   +.......+XXXX   +.......+XXXX   +.......+XXXX   +.......",
  "+       +.......+       +.......+       +.......+       +.......",
  "+       +.......+       +.......+       +.......+       +.......",
  "+       +.......+       +.......+       +.......+       +.......",
  "++++++++++++++++++++++++++++++++++++++++++++++++++++++++++++++++",
  "+XXX....+oooX   +XXX....+oooX   +XXX....+oooX   +XXX....+oooX   ",
  "+XXX....+oooX   +XXX....+oooX   +XXX....+oooX   +XXX....+oooX   ",
  "+XXX....+oooX   +XXX....+oooX   +XXX....+oooX   +XXX....+oooX   ",
  "+.......+XXXX   +.......+XXXX   +.......+XXXX   +.......+XXXX   ",
  "+.......+       +.......+       +.......+       +.......+       ",
  "+.......+       +.......+       +.......+       +.......+       ",
  "+.......+       +.......+       +.......+       +.......+       ",
  "++++++++++++++++++++++++++++++++++++++++++++++++++++++++++++++++",
  "+oooX   +XXX....+oooX   +XXX....+oooX   +XXX....+oooX   +XXX....",
  "+oooX   +XXX....+oooX   +XXX....+oooX   +XXX....+oooX   +XXX....",
  "+oooX   +XXX....+oooX   +XXX....+oooX   +XXX....+oooX   +XXX....",
  "+XXXX   +.......+XXXX   +.......+XXXX   +.......+XXXX   +.......",
  "+       +.......+       +.......+       +.......+       +.......",
  "+       +.......+       +.......+       +.......+       +.......",
  "+       +.......+       +.......+       +.......+       +.......",
  "++++++++++++++++++++++++++++++++++++++++++++++++++++++++++++++++",
  "+XXX....+oooX   +XXX....+oooX   +XXX....+oooX   +XXX....+oooX   ",
  "+XXX....+oooX   +XXX....+oooX   +XXX....+oooX   +XXX....+oooX   ",
  "+XXX....+oooX   +XXX....+oooX   +XXX....+oooX   +XXX....+oooX   ",
  "+.......+XXXX   +.......+XXXX   +.......+XXXX   +.......+XXXX   ",
  "+.......+       +.......+       +.......+       +.......+       ",
  "+.......+       +.......+       +.......+       +.......+       ",
  "+.......+       +.......+       +.......+       +.......+       ",
  "++++++++++++++++++++++++++++++++++++++++++++++++++++++++++++++++",
  "+oooX   +XXX....+oooX   +XXX....+oooX   +XXX....+oooX   +XXX....",
  "+oooX   +XXX....+oooX   +XXX....+oooX   +XXX....+oooX   +XXX....",
  "+oooX   +XXX....+oooX   +XXX....+oooX   +XXX....+oooX   +XXX...."
};
