/* XPM */
static char *wall_east[] = {
/* width height num_colors chars_per_pixel */
"64 64 4 1",
/* colors */
"  c #006400",
". c #228B22",
"X c #32CD32",
"o c #90EE90",
/* pixels */
"                                                                ",
"                                                                ",
"  .  .  .  .  .  .  .  .  .  .  .  .  .  .  .  .  .  .  .  . ",
" X.X.X.X.X.X.X.X.X.X.X.X.X.X.X.X.X.X.X.X.X.X.X.X.X.X.X.X.X. ",
"  .  .  .  .  .  .  .  .  .  .  .  .  .  .  .  .  .  .  .  . ",
"X.X.X.X.X.X.X.X.X.X.X.X.X.X.X.X.X.X.X.X.X.X.X.X.X.X.X.X.X.X",
"  .  .  .  .  .  .  .  .  .  .  .  .  .  .  .  .  .  .  .  . ",
" X.X.X.X.X.X.X.X.X.X.X.X.X.X.X.X.X.X.X.X.X.X.X.X.X.X.X.X.X. ",
"  .  .  .  .  .  .  .  .  .  .  .  .  .  .  .  .  .  .  .  . ",
"X.X.X.X.X.X.X.X.X.X.X.X.X.X.X.X.X.X.X.X.X.X.X.X.X.X.X.X.X.X",
"  .  .  .  .  .  .  .  .  .  .  .  .  .  .  .  .  .  .  .  . ",
" X.X.X.X.X.X.X.X.X.X.X.X.X.X.X.X.X.X.X.X.X.X.X.X.X.X.X.X.X. ",
"  .  .  .  .  .  .  .  .  .  .  .  .  .  .  .  .  .  .  .  . ",
"X.X.X.X.X.X.X.X.X.X.X.X.X.X.X.X.X.X.X.X.X.X.X.X.X.X.X.X.X.X",
"  .  .  .  .  .  .  .  .  .  .  .  .  .  .  .  .  .  .  .  . ",
" X.X.X.X.X.X.X.X.X.X.X.X.X.X.X.X.X.X.X.X.X.X.X.X.X.X.X.X.X. ",
"  .  .  .  .  .  .  .  .  .  .  .  .  .  .  .  .  .  .  .  . ",
"X.X.X.X.X.X.X.X.X.X.X.X.X.X.X.X.X.X.X.X.X.X.X.X.X.X.X.X.X.X",
"  .  .  .  .  .  .  .  .  .  .  .  .  .  .  .  .  .  .  .  . ",
" X.X.X.X.X.X.X.X.X.X.X.X.X.X.X.X.X.X.X.X.X.X.X.X.X.X.X.X.X. ",
"  .  .  .  .  .  .  .  .  .  .  .  .  .  .  .  .  .  .  .  . ",
"X.X.X.X.X.X.X.X.X.X.X.X.X.X.X.X.X.X.X.X.X.X.X.X.X.X.X.X.X.X",
"  .  .  .  .  .  .  .  .  .  .  .  .  .  .  .  .  .  .  .  . ",
" X.X.X.X.X.X.X.X.X.X.X.X.X.X.X.X.X.X.X.X.X.X.X.X.X.X.X.X.X. ",
"  .  .  .  .  .  .  .  .  .  .  .  .  .  .  .  .  .  .  .  . ",
"X.X.X.X.X.X.X.X.X.X.X.X.X.X.X.X.X.X.X.X.X.X.X.X.X.X.X.X.X.X",
"  .  .  .  .  .  .  .  .  .  .  .  .  .  .  .  .  .  .  .  . ",
" X.X.X.X.X.X.X.X.X.X.X.X.X.X.X.X.X.X.X.X.X.X.X.X.X.X.X.X.X. ",
"  .  .  .  .  .  .  .  .  .  .  .  .  .  .  .  .  .  .  .  . ",
"X.X.X.X.X.X.X.X.X.X.X.X.X.X.X.X.X.X.X.X.X.X.X.X.X.X.X.X.X.X",
"  .  .  .  .  .  .  .  .  .  .  .  .  .  .  .  .  .  .  .  . ",
" X.X.X.X.X.X.X.X.X.X.X.X.X.X.X.X.X.X.X.X.X.X.X.X.X.X.X.X.X. ",
"  .  .  .  .  .  .  .  .  .  .  .  .  .  .  .  .  .  .  .  . ",
"X.X.X.X.X.X.X.X.X.X.X.X.X.X.X.X.X.X.X.X.X.X.X.X.X.X.X.X.X.X",
"  .  .  .  .  .  .  .  .  .  .  .  .  .  .  .  .  .  .  .  . ",
" X.X.X.X.X.X.X.X.X.X.X.X.X.X.X.X.X.X.X.X.X.X.X.X.X.X.X.X.X. ",
"  .  .  .  .  .  .  .  .  .  .  .  .  .  .  .  .  .  .  .  . ",
"X.X.X.X.X.X.X.X.X.X.X.X.X.X.X.X.X.X.X.X.X.X.X.X.X.X.X.X.X.X",
"  .  .  .  .  .  .  .  .  .  .  .  .  .  .  .  .  .  .  .  . ",
" X.X.X.X.X.X.X.X.X.X.X.X.X.X.X.X.X.X.X.X.X.X.X.X.X.X.X.X.X. ",
"  .  .  .  .  .  .  .  .  .  .  .  .  .  .  .  .  .  .  .  . ",
"X.X.X.X.X.X.X.X.X.X.X.X.X.X.X.X.X.X.X.X.X.X.X.X.X.X.X.X.X.X",
"  .  .  .  .  .  .  .  .  .  .  .  .  .  .  .  .  .  .  .  . ",
" X.X.X.X.X.X.X.X.X.X.X.X.X.X.X.X.X.X.X.X.X.X.X.X.X.X.X.X.X. ",
"  .  .  .  .  .  .  .  .  .  .  .  .  .  .  .  .  .  .  .  . ",
"X.X.X.X.X.X.X.X.X.X.X.X.X.X.X.X.X.X.X.X.X.X.X.X.X.X.X.X.X.X",
"  .  .  .  .  .  .  .  .  .  .  .  .  .  .  .  .  .  .  .  . ",
" X.X.X.X.X.X.X.X.X.X.X.X.X.X.X.X.X.X.X.X.X.X.X.X.X.X.X.X.X. ",
"  .  .  .  .  .  .  .  .  .  .  .  .  .  .  .  .  .  .  .  . ",
"X.X.X.X.X.X.X.X.X.X.X.X.X.X.X.X.X.X.X.X.X.X.X.X.X.X.X.X.X.X",
"                                                                ",
"                                                                "
};