/* XPM */
static char *wall_north[] = {
/* width height num_colors chars_per_pixel */
"64 64 4 1",
/* colors */
"  c #8B4513",
". c #A0522D",
"X c #CD853F",
"o c #DEB887",
/* pixels */
"                                                                ",
"                                                                ",
"  .  .  .  .  .  .  .  .  .  .  .  .  .  .  .  .  .  .  .  . ",
" X.X.X.X.X.X.X.X.X.X.X.X.X.X.X.X.X.X.X.X.X.X.X.X.X.X.X.X.X. ",
"  .  .  .  .  .  .  .  .  .  .  .  .  .  .  .  .  .  .  .  . ",
"X.X.X.X.X.X.X.X.X.X.X.X.X.X.X.X.X.X.X.X.X.X.X.X.X.X.X.X.X.X",
"  .  .  .  .  .  .  .  .  .  .  .  .  .  .  .  .  .  .  .  . ",
" X.X.X.X.X.X.X.X.X.X.X.X.X.X.X.X.X.X.X.X.X.X.X.X.X.X.X.X.X. ",
"  .  .  .  .  .  .  .  .  .  .  .  .  .  .  .  .  .  .  .  . ",
"X.X.X.X.X.X.X.X.X.X.X.X.X.X.X.X.X.X.X.X.X.X.X.X.X.X.X.X.X.X",
"  .  .  .  .  .  .  .  .  .  .  .  .  .  .  .  .  .  .  .  . ",
" X.X.X.X.X.X.X.X.X.X.X.X.X.X.X.X.X.X.X.X.X.X.X.X.X.X.X.X.X. ",
"  .  .  .  .  .  .  .  .  .  .  .  .  .  .  .  .  .  .  .  . ",
"X.X.X.X.X.X.X.X.X.X.X.X.X.X.X.X.X.X.X.X.X.X.X.X.X.X.X.X.X.X",
"  .  .  .  .  .  .  .  .  .  .  .  .  .  .  .  .  .  .  .  . ",
" X.X.X.X.X.X.X.X.X.X.X.X.X.X.X.X.X.X.X.X.X.X.X.X.X.X.X.X.X. ",
"  .  .  .  .  .  .  .  .  .  .  .  .  .  .  .  .  .  .  .  . ",
"X.X.X.X.X.X.X.X.X.X.X.X.X.X.X.X.X.X.X.X.X.X.X.X.X.X.X.X.X.X",
"  .  .  .  .  .  .  .  .  .  .  .  .  .  .  .  .  .  .  .  . ",
" X.X.X.X.X.X.X.X.X.X.X.X.X.X.X.X.X.X.X.X.X.X.X.X.X.X.X.X.X. ",
"  .  .  .  .  .  .  .  .  .  .  .  .  .  .  .  .  .  .  .  . ",
"X.X.X.X.X.X.X.X.X.X.X.X.X.X.X.X.X.X.X.X.X.X.X.X.X.X.X.X.X.X",
"  .  .  .  .  .  .  .  .  .  .  .  .  .  .  .  .  .  .  .  . ",
" X.X.X.X.X.X.X.X.X.X.X.X.X.X.X.X.X.X.X.X.X.X.X.X.X.X.X.X.X. ",
"  .  .  .  .  .  .  .  .  .  .  .  .  .  .  .  .  .  .  .  . ",
"X.X.X.X.X.X.X.X.X.X.X.X.X.X.X.X.X.X.X.X.X.X.X.X.X.X.X.X.X.X",
"  .  .  .  .  .  .  .  .  .  .  .  .  .  .  .  .  .  .  .  . ",
" X.X.X.X.X.X.X.X.X.X.X.X.X.X.X.X.X.X.X.X.X.X.X.X.X.X.X.X.X. ",
"  .  .  .  .  .  .  .  .  .  .  .  .  .  .  .  .  .  .  .  . ",
"X.X.X.X.X.X.X.X.X.X.X.X.X.X.X.X.X.X.X.X.X.X.X.X.X.X.X.X.X.X",
"  .  .  .  .  .  .  .  .  .  .  .  .  .  .  .  .  .  .  .  . ",
" X.X.X.X.X.X.X.X.X.X.X.X.X.X.X.X.X.X.X.X.X.X.X.X.X.X.X.X.X. ",
"  .  .  .  .  .  .  .  .  .  .  .  .  .  .  .  .  .  .  .  . ",
"X.X.X.X.X.X.X.X.X.X.X.X.X.X.X.X.X.X.X.X.X.X.X.X.X.X.X.X.X.X",
"  .  .  .  .  .  .  .  .  .  .  .  .  .  .  .  .  .  .  .  . ",
" X.X.X.X.X.X.X.X.X.X.X.X.X.X.X.X.X.X.X.X.X.X.X.X.X.X.X.X.X. ",
"  .  .  .  .  .  .  .  .  .  .  .  .  .  .  .  .  .  .  .  . ",
"X.X.X.X.X.X.X.X.X.X.X.X.X.X.X.X.X.X.X.X.X.X.X.X.X.X.X.X.X.X",
"  .  .  .  .  .  .  .  .  .  .  .  .  .  .  .  .  .  .  .  . ",
" X.X.X.X.X.X.X.X.X.X.X.X.X.X.X.X.X.X.X.X.X.X.X.X.X.X.X.X.X. ",
"  .  .  .  .  .  .  .  .  .  .  .  .  .  .  .  .  .  .  .  . ",
"X.X.X.X.X.X.X.X.X.X.X.X.X.X.X.X.X.X.X.X.X.X.X.X.X.X.X.X.X.X",
"  .  .  .  .  .  .  .  .  .  .  .  .  .  .  .  .  .  .  .  . ",
" X.X.X.X.X.X.X.X.X.X.X.X.X.X.X.X.X.X.X.X.X.X.X.X.X.X.X.X.X. ",
"  .  .  .  .  .  .  .  .  .  .  .  .  .  .  .  .  .  .  .  . ",
"X.X.X.X.X.X.X.X.X.X.X.X.X.X.X.X.X.X.X.X.X.X.X.X.X.X.X.X.X.X",
"  .  .  .  .  .  .  .  .  .  .  .  .  .  .  .  .  .  .  .  . ",
" X.X.X.X.X.X.X.X.X.X.X.X.X.X.X.X.X.X.X.X.X.X.X.X.X.X.X.X.X. ",
"  .  .  .  .  .  .  .  .  .  .  .  .  .  .  .  .  .  .  .  . ",
"X.X.X.X.X.X.X.X.X.X.X.X.X.X.X.X.X.X.X.X.X.X.X.X.X.X.X.X.X.X",
"                                                                ",
"                                                                "
};
