/* XPM */
static char *wall_south[] = {
/* width height num_colors chars_per_pixel */
"64 52 4 1",
/* colors */
"  c #4B0082",
". c #6A0DAD",
"X c #7B68EE",
"o c #9370DB",
/* pixels */
"                                                                ",
"                                                                ",
"  .  .  .  .  .  .  .  .  .  .  .  .  .  .  .  .  .  .  .  . ",
" X.X.X.X.X.X.X.X.X.X.X.X.X.X.X.X.X.X.X.X.X.X.X.X.X.X.X.X.X. ",
"  .  .  .  .  .  .  .  .  .  .  .  .  .  .  .  .  .  .  .  . ",
"X.X.X.X.X.X.X.X.X.X.X.X.X.X.X.X.X.X.X.X.X.X.X.X.X.X.X.X.X.X",
"  .  .  .  .  .  .  .  .  .  .  .  .  .  .  .  .  .  .  .  . ",
" X.X.X.X.X.X.X.X.X.X.X.X.X.X.X.X.X.X.X.X.X.X.X.X.X.X.X.X.X. ",
"  .  .  .  .  .  .  .  .  .  .  .  .  .  .  .  .  .  .  .  . ",
"X.X.X.X.X.X.X.X.X.X.X.X.X.X.X.X.X.X.X.X.X.X.X.X.X.X.X.X.X.X",
"  .  .  .  .  .  .  .  .  .  .  .  .  .  .  .  .  .  .  .  . ",
" X.X.X.X.X.X.X.X.X.X.X.X.X.X.X.X.X.X.X.X.X.X.X.X.X.X.X.X.X. ",
"  .  .  .  .  .  .  .  .  .  .  .  .  .  .  .  .  .  .  .  . ",
"X.X.X.X.X.X.X.X.X.X.X.X.X.X.X.X.X.X.X.X.X.X.X.X.X.X.X.X.X.X",
"  .  .  .  .  .  .  .  .  .  .  .  .  .  .  .  .  .  .  .  . ",
" X.X.X.X.X.X.X.X.X.X.X.X.X.X.X.X.X.X.X.X.X.X.X.X.X.X.X.X.X. ",
"  .  .  .  .  .  .  .  .  .  .  .  .  .  .  .  .  .  .  .  . ",
"X.X.X.X.X.X.X.X.X.X.X.X.X.X.X.X.X.X.X.X.X.X.X.X.X.X.X.X.X.X",
"  .  .  .  .  .  .  .  .  .  .  .  .  .  .  .  .  .  .  .  . ",
" X.X.X.X.X.X.X.X.X.X.X.X.X.X.X.X.X.X.X.X.X.X.X.X.X.X.X.X.X. ",
"  .  .  .  .  .  .  .  .  .  .  .  .  .  .  .  .  .  .  .  . ",
"X.X.X.X.X.X.X.X.X.X.X.X.X.X.X.X.X.X.X.X.X.X.X.X.X.X.X.X.X.X",
"  .  .  .  .  .  .  .  .  .  .  .  .  .  .  .  .  .  .  .  . ",
" X.X.X.X.X.X.X.X.X.X.X.X.X.X.X.X.X.X.X.X.X.X.X.X.X.X.X.X.X. ",
"  .  .  .  .  .  .  .  .  .  .  .  .  .  .  .  .  .  .  .  . ",
"X.X.X.X.X.X.X.X.X.X.X.X.X.X.X.X.X.X.X.X.X.X.X.X.X.X.X.X.X.X",
"  .  .  .  .  .  .  .  .  .  .  .  .  .  .  .  .  .  .  .  . ",
" X.X.X.X.X.X.X.X.X.X.X.X.X.X.X.X.X.X.X.X.X.X.X.X.X.X.X.X.X. ",
"  .  .  .  .  .  .  .  .  .  .  .  .  .  .  .  .  .  .  .  . ",
"X.X.X.X.X.X.X.X.X.X.X.X.X.X.X.X.X.X.X.X.X.X.X.X.X.X.X.X.X.X",
"  .  .  .  .  .  .  .  .  .  .  .  .  .  .  .  .  .  .  .  . ",
" X.X.X.X.X.X.X.X.X.X.X.X.X.X.X.X.X.X.X.X.X.X.X.X.X.X.X.X.X. ",
"  .  .  .  .  .  .  .  .  .  .  .  .  .  .  .  .  .  .  .  . ",
"X.X.X.X.X.X.X.X.X.X.X.X.X.X.X.X.X.X.X.X.X.X.X.X.X.X.X.X.X.X",
"  .  .  .  .  .  .  .  .  .  .  .  .  .  .  .  .  .  .  .  . ",
" X.X.X.X.X.X.X.X.X.X.X.X.X.X.X.X.X.X.X.X.X.X.X.X.X.X.X.X.X. ",
"  .  .  .  .  .  .  .  .  .  .  .  .  .  .  .  .  .  .  .  . ",
"X.X.X.X.X.X.X.X.X.X.X.X.X.X.X.X.X.X.X.X.X.X.X.X.X.X.X.X.X.X",
"  .  .  .  .  .  .  .  .  .  .  .  .  .  .  .  .  .  .  .  . ",
" X.X.X.X.X.X.X.X.X.X.X.X.X.X.X.X.X.X.X.X.X.X.X.X.X.X.X.X.X. ",
"  .  .  .  .  .  .  .  .  .  .  .  .  .  .  .  .  .  .  .  . ",
"X.X.X.X.X.X.X.X.X.X.X.X.X.X.X.X.X.X.X.X.X.X.X.X.X.X.X.X.X.X",
"  .  .  .  .  .  .  .  .  .  .  .  .  .  .  .  .  .  .  .  . ",
" X.X.X.X.X.X.X.X.X.X.X.X.X.X.X.X.X.X.X.X.X.X.X.X.X.X.X.X.X. ",
"  .  .  .  .  .  .  .  .  .  .  .  .  .  .  .  .  .  .  .  . ",
"X.X.X.X.X.X.X.X.X.X.X.X.X.X.X.X.X.X.X.X.X.X.X.X.X.X.X.X.X.X",
"  .  .  .  .  .  .  .  .  .  .  .  .  .  .  .  .  .  .  .  . ",
" X.X.X.X.X.X.X.X.X.X.X.X.X.X.X.X.X.X.X.X.X.X.X.X.X.X.X.X.X. ",
"  .  .  .  .  .  .  .  .  .  .  .  .  .  .  .  .  .  .  .  . ",
"X.X.X.X.X.X.X.X.X.X.X.X.X.X.X.X.X.X.X.X.X.X.X.X.X.X.X.X.X.X",
"                                                                ",
"                                                                "
};
