/* XPM */
static char *wall_west[] = {
/* width height num_colors chars_per_pixel */
"64 52 4 1",
/* colors */
"  c #FFD700",
". c #FFA500",
"X c #FF8C00",
"o c #FF6347",
/* pixels */
"                                                                ",
"                                                                ",
"  .  .  .  .  .  .  .  .  .  .  .  .  .  .  .  .  .  .  .  . ",
" X.X.X.X.X.X.X.X.X.X.X.X.X.X.X.X.X.X.X.X.X.X.X.X.X.X.X.X.X. ",
"  .  .  .  .  .  .  .  .  .  .  .  .  .  .  .  .  .  .  .  . ",
"X.X.X.X.X.X.X.X.X.X.X.X.X.X.X.X.X.X.X.X.X.X.X.X.X.X.X.X.X.X",
"  .  .  .  .  .  .  .  .  .  .  .  .  .  .  .  .  .  .  .  . ",
" X.X.X.X.X.X.X.X.X.X.X.X.X.X.X.X.X.X.X.X.X.X.X.X.X.X.X.X.X. ",
"  .  .  .  .  .  .  .  .  .  .  .  .  .  .  .  .  .  .  .  . ",
"X.X.X.X.X.X.X.X.X.X.X.X.X.X.X.X.X.X.X.X.X.X.X.X.X.X.X.X.X.X",
"  .  .  .  .  .  .  .  .  .  .  .  .  .  .  .  .  .  .  .  . ",
" X.X.X.X.X.X.X.X.X.X.X.X.X.X.X.X.X.X.X.X.X.X.X.X.X.X.X.X.X. ",
"  .  .  .  .  .  .  .  .  .  .  .  .  .  .  .  .  .  .  .  . ",
"X.X.X.X.X.X.X.X.X.X.X.X.X.X.X.X.X.X.X.X.X.X.X.X.X.X.X.X.X.X",
"  .  .  .  .  .  .  .  .  .  .  .  .  .  .  .  .  .  .  .  . ",
" X.X.X.X.X.X.X.X.X.X.X.X.X.X.X.X.X.X.X.X.X.X.X.X.X.X.X.X.X. ",
"  .  .  .  .  .  .  .  .  .  .  .  .  .  .  .  .  .  .  .  . ",
"X.X.X.X.X.X.X.X.X.X.X.X.X.X.X.X.X.X.X.X.X.X.X.X.X.X.X.X.X.X",
"  .  .  .  .  .  .  .  .  .  .  .  .  .  .  .  .  .  .  .  . ",
" X.X.X.X.X.X.X.X.X.X.X.X.X.X.X.X.X.X.X.X.X.X.X.X.X.X.X.X.X. ",
"  .  .  .  .  .  .  .  .  .  .  .  .  .  .  .  .  .  .  .  . ",
"X.X.X.X.X.X.X.X.X.X.X.X.X.X.X.X.X.X.X.X.X.X.X.X.X.X.X.X.X.X",
"  .  .  .  .  .  .  .  .  .  .  .  .  .  .  .  .  .  .  .  . ",
" X.X.X.X.X.X.X.X.X.X.X.X.X.X.X.X.X.X.X.X.X.X.X.X.X.X.X.X.X. ",
"  .  .  .  .  .  .  .  .  .  .  .  .  .  .  .  .  .  .  .  . ",
"X.X.X.X.X.X.X.X.X.X.X.X.X.X.X.X.X.X.X.X.X.X.X.X.X.X.X.X.X.X",
"  .  .  .  .  .  .  .  .  .  .  .  .  .  .  .  .  .  .  .  . ",
" X.X.X.X.X.X.X.X.X.X.X.X.X.X.X.X.X.X.X.X.X.X.X.X.X.X.X.X.X. ",
"  .  .  .  .  .  .  .  .  .  .  .  .  .  .  .  .  .  .  .  . ",
"X.X.X.X.X.X.X.X.X.X.X.X.X.X.X.X.X.X.X.X.X.X.X.X.X.X.X.X.X.X",
"  .  .  .  .  .  .  .  .  .  .  .  .  .  .  .  .  .  .  .  . ",
" X.X.X.X.X.X.X.X.X.X.X.X.X.X.X.X.X.X.X.X.X.X.X.X.X.X.X.X.X. ",
"  .  .  .  .  .  .  .  .  .  .  .  .  .  .  .  .  .  .  .  . ",
"X.X.X.X.X.X.X.X.X.X.X.X.X.X.X.X.X.X.X.X.X.X.X.X.X.X.X.X.X.X",
"  .  .  .  .  .  .  .  .  .  .  .  .  .  .  .  .  .  .  .  . ",
" X.X.X.X.X.X.X.X.X.X.X.X.X.X.X.X.X.X.X.X.X.X.X.X.X.X.X.X.X. ",
"  .  .  .  .  .  .  .  .  .  .  .  .  .  .  .  .  .  .  .  . ",
"X.X.X.X.X.X.X.X.X.X.X.X.X.X.X.X.X.X.X.X.X.X.X.X.X.X.X.X.X.X",
"  .  .  .  .  .  .  .  .  .  .  .  .  .  .  .  .  .  .  .  . ",
" X.X.X.X.X.X.X.X.X.X.X.X.X.X.X.X.X.X.X.X.X.X.X.X.X.X.X.X.X. ",
"  .  .  .  .  .  .  .  .  .  .  .  .  .  .  .  .  .  .  .  . ",
"X.X.X.X.X.X.X.X.X.X.X.X.X.X.X.X.X.X.X.X.X.X.X.X.X.X.X.X.X.X",
"  .  .  .  .  .  .  .  .  .  .  .  .  .  .  .  .  .  .  .  . ",
" X.X.X.X.X.X.X.X.X.X.X.X.X.X.X.X.X.X.X.X.X.X.X.X.X.X.X.X.X. ",
"  .  .  .  .  .  .  .  .  .  .  .  .  .  .  .  .  .  .  .  . ",
"X.X.X.X.X.X.X.X.X.X.X.X.X.X.X.X.X.X.X.X.X.X.X.X.X.X.X.X.X.X",
"  .  .  .  .  .  .  .  .  .  .  .  .  .  .  .  .  .  .  .  . ",
" X.X.X.X.X.X.X.X.X.X.X.X.X.X.X.X.X.X.X.X.X.X.X.X.X.X.X.X.X. ",
"  .  .  .  .  .  .  .  .  .  .  .  .  .  .  .  .  .  .  .  . ",
"X.X.X.X.X.X.X.X.X.X.X.X.X.X.X.X.X.X.X.X.X.X.X.X.X.X.X.X.X.X",
"                                                                ",
"                                                                "
};
